src/16/pause-16.svg

<?xml version="1.0" encoding="iso-8859-1"?>
<!-- Generator: Adobe Illustrator 19.1.0, SVG Export Plug-In . SVG Version: 6.00 Build 0)  -->
<!DOCTYPE svg PUBLIC "-//W3C//DTD SVG 1.1 Tiny//EN" "http://www.w3.org/Graphics/SVG/1.1/DTD/svg11-tiny.dtd">
<svg version="1.1" baseProfile="tiny" xmlns="http://www.w3.org/2000/svg" xmlns:xlink="http://www.w3.org/1999/xlink" x="0px"
	 y="0px" viewBox="0 0 16 16" xml:space="preserve">
<g id="Layer_1">
	<g id="XMLID_761_">
		<path d="M6.5,16h-4C2.224,16,2,15.776,2,15.5v-15C2,0.224,2.224,0,2.5,0h4C6.776,0,7,0.224,7,0.5v15C7,15.776,6.776,16,6.5,16z
			 M3,15h3V1H3V15z"/>
		<path d="M13.5,16h-4C9.224,16,9,15.776,9,15.5v-15C9,0.224,9.224,0,9.5,0h4C13.776,0,14,0.224,14,0.5v15
			C14,15.776,13.776,16,13.5,16z M10,15h3V1h-3V15z"/>
	</g>
</g>
<g id="Layer_2">
</g>
<g id="Layer_3">
</g>
</svg>

<svg baseProfile="tiny" xmlns="http://www.w3.org/2000/svg" viewBox="0 0 16 16"><path d="M6.5 16h-4a.5.5 0 0 1-.5-.5V.5a.5.5 0 0 1 .5-.5h4a.5.5 0 0 1 .5.5v15a.5.5 0 0 1-.5.5zM3 15h3V1H3v14zM13.5 16h-4a.5.5 0 0 1-.5-.5V.5a.5.5 0 0 1 .5-.5h4a.5.5 0 0 1 .5.5v15a.5.5 0 0 1-.5.5zM10 15h3V1h-3v14z"/></svg>
